icons/esport.svg

<svg width="24" height="24" viewBox="0 0 24 24" fill="none" xmlns="http://www.w3.org/2000/svg">
<path d="M8.5 8.5V11.5" stroke="white" stroke-width="2" stroke-linecap="round" stroke-linejoin="round"/>
<path d="M10 10H7" stroke="white" stroke-width="2" stroke-linecap="round" stroke-linejoin="round"/>
<path d="M17 10H14" stroke="white" stroke-width="2" stroke-linecap="round" stroke-linejoin="round"/>
<path d="M5.08701 6.152C5.90953 5.42108 6.97066 5.01569 8.07101 5.012L12 5L15.929 5.012C17.02 5.012 18.077 5.416 18.913 6.152C19.7578 6.90307 20.3187 7.92161 20.502 9.037L21.962 16.922C22.054 17.471 21.977 18.037 21.742 18.537C21.507 19.037 21.126 19.446 20.654 19.704C20.1864 19.9605 19.6466 20.0537 19.12 19.969C18.5892 19.8817 18.1017 19.6228 17.732 19.232L13.872 15.004L12 14.996L10.128 15.004L6.26801 19.232C5.89851 19.6232 5.41094 19.8824 4.88001 19.97C4.35333 20.0544 3.81353 19.9608 3.34601 19.704C2.86868 19.4403 2.48763 19.0316 2.25801 18.537C2.02249 18.0335 1.94576 17.4702 2.03801 16.922L3.49801 9.037C3.68128 7.92161 4.24227 6.90307 5.08701 6.152V6.152Z" stroke="white" stroke-width="2" stroke-linecap="round" stroke-linejoin="round"/>
</svg>

<svg
  width="24"
  height="24"
  viewBox="0 0 24 24"
  xmlns="http://www.w3.org/2000/svg"
  fill="none"
  stroke="currentColor"
  stroke-width="2"
  stroke-linecap="round"
  stroke-linejoin="round"
>
  <path d="M8.5 8.5v3" />
  <path d="M10 10H7" />
  <path d="M17 10h-3" />
  <path d="M5.087 6.152a4.515 4.515 0 0 1 2.984-1.14L12 5l3.929.012c1.091 0 2.148.404 2.984 1.14a4.93 4.93 0 0 1 1.589 2.885l1.46 7.885a2.74 2.74 0 0 1-.22 1.615c-.235.5-.616.909-1.088 1.167a2.398 2.398 0 0 1-1.534.265 2.46 2.46 0 0 1-1.388-.737l-3.86-4.228L12 14.996l-1.872.008-3.86 4.228a2.46 2.46 0 0 1-1.388.738 2.398 2.398 0 0 1-1.534-.266 2.57 2.57 0 0 1-1.088-1.167 2.739 2.739 0 0 1-.22-1.615l1.46-7.885a4.93 4.93 0 0 1 1.589-2.885z" />
</svg>
